img/activity.svg

<?xml version="1.0" encoding="UTF-8" standalone="no"?>
<svg xmlns:rdf="http://www.w3.org/1999/02/22-rdf-syntax-ns#" xmlns="http://www.w3.org/2000/svg" height="32" width="32" version="1.0" xmlns:cc="http://creativecommons.org/ns#" xmlns:xlink="http://www.w3.org/1999/xlink" xmlns:dc="http://purl.org/dc/elements/1.1/">
 <g>
  <path opacity=".9" d="m16 0-10 18h11l-1 12 10-18h-11z"/>
  <path opacity=".1" d="m16 2-10 18h11l-1 12 10-18h-11z" fill="#fff"/>
  <path d="m16 1-10 18h11l-1 12 10-18h-11z" fill="#fff"/>
 </g>
</svg>

<?xml version="1.0" encoding="UTF-8" standalone="no"?>
<!-- Created with Inkscape (http://www.inkscape.org/) -->

<svg
   xmlns:dc="http://purl.org/dc/elements/1.1/"
   xmlns:cc="http://creativecommons.org/ns#"
   xmlns:rdf="http://www.w3.org/1999/02/22-rdf-syntax-ns#"
   xmlns:svg="http://www.w3.org/2000/svg"
   xmlns="http://www.w3.org/2000/svg"
   xmlns:xlink="http://www.w3.org/1999/xlink"
   xmlns:sodipodi="http://sodipodi.sourceforge.net/DTD/sodipodi-0.dtd"
   xmlns:inkscape="http://www.inkscape.org/namespaces/inkscape"
   version="1.0"
   width="32"
   height="32"
   id="svg3212"
   inkscape:version="0.48.3.1 r9886"
   sodipodi:docname="activity.svg"
   inkscape:export-filename="tasks.png"
   inkscape:export-xdpi="90"
   inkscape:export-ydpi="90">
  <metadata
     id="metadata13">
    <rdf:RDF>
      <cc:Work
         rdf:about="">
        <dc:format>image/svg+xml</dc:format>
        <dc:type
           rdf:resource="http://purl.org/dc/dcmitype/StillImage" />
        <dc:title />
      </cc:Work>
    </rdf:RDF>
  </metadata>
  <sodipodi:namedview
     pagecolor="#ffffff"
     bordercolor="#666666"
     borderopacity="1"
     objecttolerance="10"
     gridtolerance="10"
     guidetolerance="10"
     inkscape:pageopacity="0"
     inkscape:pageshadow="2"
     inkscape:window-width="1366"
     inkscape:window-height="744"
     id="namedview11"
     showgrid="false"
     inkscape:zoom="9.481659"
     inkscape:cx="1.5883999"
     inkscape:cy="18.484476"
     inkscape:window-x="0"
     inkscape:window-y="24"
     inkscape:window-maximized="1"
     inkscape:current-layer="svg3212"
     fit-margin-top="0"
     fit-margin-left="0"
     fit-margin-right="0"
     fit-margin-bottom="0" />
  <defs
     id="defs3214">
    <linearGradient
       id="linearGradient3587-6-5">
      <stop
         id="stop3589-9-2"
         style="stop-color:#000000;stop-opacity:1"
         offset="0" />
      <stop
         id="stop3591-7-4"
         style="stop-color:#363636;stop-opacity:1"
         offset="1" />
    </linearGradient>
    <linearGradient
       x1="32.361256"
       y1="4.561305"
       x2="32.361256"
       y2="18.561304"
       id="linearGradient2401"
       xlink:href="#linearGradient3587-6-5"
       gradientUnits="userSpaceOnUse"
       gradientTransform="translate(-21.361257,-0.561305)" />
    <linearGradient
       id="linearGradient3678">
      <stop
         style="stop-color:#ffffff;stop-opacity:1;"
         offset="0"
         id="stop3680" />
      <stop
         style="stop-color:#e6e6e6;stop-opacity:1;"
         offset="1"
         id="stop3682" />
    </linearGradient>
    <linearGradient
       gradientTransform="matrix(-0.4100229,0,0,0.5447147,78.029995,-3.8459034)"
       gradientUnits="userSpaceOnUse"
       xlink:href="#linearGradient3678"
       id="linearGradient2388"
       y2="38.279892"
       x2="159.68553"
       y1="14.403693"
       x1="159.68553" />
  </defs>
  <path
     sodipodi:nodetypes="ccccccc"
     inkscape:connector-curvature="0"
     id="path3826"
     d="M 16,0 6,18 17,18 16,30 26,12 15,12 z"
     style="opacity:0.9;fill:#000000;fill-opacity:1;stroke:none" />
  <path
     style="opacity:0.1;fill:#ffffff;fill-opacity:1;stroke:none"
     d="M 16,2 6,20 17,20 16,32 26,14 15,14 z"
     id="path3828"
     inkscape:connector-curvature="0"
     sodipodi:nodetypes="ccccccc" />
  <path
     style="fill:#ffffff;fill-opacity:1;stroke:none"
     d="M 16,1 6,19 17,19 16,31 26,13 15,13 z"
     id="path3007"
     inkscape:connector-curvature="0"
     sodipodi:nodetypes="ccccccc" />
</svg>
